dist/svgs/crypto-icons/icons/stash.svg

<svg width="398" height="512" xmlns="http://www.w3.org/2000/svg"><path d="M25.0524064,96.6502674 C40.9326203,73.9251337 64.0684492,56.2652406 94.459893,43.5336898 C124.851337,30.802139 161.129412,24.5048128 203.294118,24.5048128 C238.203209,24.5048128 269.279144,28.3379679 296.248128,36.0042781 L295.563636,35.7304813 L315.824599,0.136898396 L343.204278,0.136898396 L356.894118,23.8203209 L340.055615,53.3903743 L339.781818,53.2534759 C351.55508,59.5508021 363.328342,66.9433155 374.690909,75.7048128 L374.690909,137.719786 L318.151872,170.438503 C305.146524,158.665241 291.593583,149.493048 277.493048,143.058824 C256.82139,133.749733 233.137968,129.095187 206.442781,129.095187 C187.003209,129.095187 171.807487,132.24385 160.855615,138.678075 C149.903743,144.975401 144.564706,153.463102 144.564706,163.86738 C144.564706,172.081283 150.17754,178.37861 161.540107,182.896257 C170.712299,186.592513 184.812834,190.425668 203.841711,194.395722 L149.219251,288.992513 C142.648128,300.491979 128.958289,305.967914 116.226738,302.271658 C105.685561,299.122995 95.9657754,295.974332 87.0673797,292.414973 C62.2887701,282.832086 41.8909091,268.731551 25.4631016,249.839572 C9.03529412,230.947594 0.95828877,206.032086 0.95828877,174.682353 C1.23208556,145.386096 9.17219251,119.238503 25.0524064,96.6502674 Z M371.952941,422.468449 C354.703743,443.824599 331.431016,459.841711 301.860963,470.793583 C272.427807,481.745455 239.024599,487.084492 201.925134,487.084492 C160.171123,487.084492 124.988235,483.525134 96.2395722,476.269519 L75.9786096,511.863102 L48.5989305,511.863102 L34.9090909,488.179679 L51.0631016,459.704813 C39.2898396,453.95508 27.7903743,447.247059 16.5647059,439.717647 L16.5647059,376.744385 L73.9251337,343.614973 C86.3828877,354.293048 99.6620321,362.506952 113.899465,368.393583 C136.350802,377.702674 162.772193,382.357219 193.163636,382.357219 C234.370053,382.357219 255.041711,372.363636 255.041711,352.376471 C255.041711,343.751872 249.018182,336.906952 236.971123,331.97861 C226.293048,327.460963 209.591444,323.080214 187.140107,318.562567 L242.173262,223.281283 C248.744385,211.918717 262.297326,206.442781 275.028877,210.002139 C293.236364,215.204278 309.116578,220.954011 322.669519,227.525134 C348.680214,239.982888 367.845989,255.726203 379.75615,274.75508 C391.803209,293.783957 397.826738,317.330481 397.826738,345.531551 C397.826738,375.512299 389.202139,401.112299 371.952941,422.468449 Z" fill="#000" fill-rule="nonzero"/></svg>

<svg xmlns="http://www.w3.org/2000/svg" viewBox="0 0 398 512"><path d="M25.052 96.65c15.88-22.725 39.016-40.385 69.408-53.116 30.391-12.732 66.67-19.03 108.834-19.03 34.91 0 65.985 3.834 92.954 11.5l-.684-.274L315.824.137h27.38l13.69 23.683-16.838 29.57-.274-.137c11.773 6.298 23.546 13.69 34.909 22.452v62.015l-56.54 32.719c-13.004-11.774-26.557-20.946-40.658-27.38-20.672-9.31-44.355-13.964-71.05-13.964-19.44 0-34.636 3.149-45.587 9.583-10.952 6.297-16.291 14.785-16.291 25.19 0 8.213 5.613 14.51 16.975 19.028 9.172 3.697 23.273 7.53 42.302 11.5l-54.623 94.597c-6.57 11.499-20.26 16.975-32.992 13.279-10.541-3.149-20.261-6.298-29.16-9.857-24.778-9.583-45.176-23.683-61.604-42.575C9.035 230.948.958 206.032.958 174.682c.274-29.296 8.214-55.443 24.094-78.032zm346.9 325.818c-17.248 21.357-40.521 37.374-70.091 48.326-29.433 10.951-62.836 16.29-99.936 16.29-41.754 0-76.937-3.559-105.685-10.814l-20.261 35.593h-27.38l-13.69-23.683 16.154-28.475c-11.773-5.75-23.273-12.458-34.498-19.987v-62.974l57.36-33.129c12.458 10.678 25.737 18.892 39.974 24.779 22.452 9.309 48.873 13.963 79.265 13.963 41.206 0 61.878-9.993 61.878-29.98 0-8.625-6.024-15.47-18.07-20.398-10.679-4.518-27.38-8.899-49.832-13.416l55.033-95.282c6.571-11.362 20.124-16.838 32.856-13.279 18.207 5.202 34.088 10.952 47.64 17.523 26.011 12.458 45.177 28.201 57.087 47.23 12.047 19.029 18.07 42.575 18.07 70.777 0 29.98-8.624 55.58-25.873 76.936z"/></svg>
